X:1
T:A minor Jeremiah Ingalls, 1805
T:Anonymous Author, before 1803 Irregular meter
T:Friendship
T:Treble-Tenor-Bass from Ingalls' Christian Harmony , 180 5; Counter by B. C. Johnston, 2017.
%%score [ 1 2 3 4 ]
L:1/8
Q:1/4=140
M:4/4
K:C
V:1 treble nm="Tr." snm="Tr."
V:2 treble nm="C." snm="C."
V:3 treble-8 nm="T." snm="T."
V:4 bass nm="B." snm="B."
V:1
 E4 | A2 A2 A2 BA | ^G2 G2 G2 G2 | A2 Bc d2 B2 | (c2 A2) ^G2 G2 | B4 B4 | d4 (d2 f2) | %7
w: 1.~The|rea- son why we *|love friend- ship, We|will de- * ny to|no~ _ man, For|how shall,|how shall, *|
w: 2.~On|the feast days, in *|an- cient times, Our|Je- sus * stood thus|cry- * ing, That|who- so|thirs- teth, *|
 (e2 c2) B2 ^G2 | E4 E4 | A2 A2 A2 BA | ^G2 G2 G2 G2 | A2 Bc d2 B2 | (c2 A2) ^G2 G2 | B4 B4 | %14
w: how * shall we|be, Who|are thus formed for *|hap- pi- ness, E'er|slight a * lo- ving|Chris- * tian, Since|Je- sus,|
w: let * eve- ry|man Come|un- to me and *|free- ly drink, And|thus be * saved from|dy- * ing: For|sure- ly|
 d4 (d2 f2) | (e2 c2) B2 ^G2 | E8 | z4 z2 E2 | A3 ^G A2 d2 | c6 e2 | d2 d2 B2 B2 | (c2 A2) ^G2 E2 | %22
w: Je- sus *|died * on the|tree.|For|to de- li- ver|men from|vi- o- lence and|trea- * son, That|
w: there is *|none * else that|can|Quench|the im- mor- tal|thirst which|in your hearts is|glo- * wing, Then|
 c2 B2 c2 A2 | B2 B2 e2 e2 | c2 e2 d2 c2 | (e2 c2) B4- | B4 c4 | e2 d2 c3 B | c2 d2 e2 g2 | %29
w: we might love each|o- ther's voice and|seek our soul's sal-|va- * tion.~|_ 'Twas|love that moved the|migh- ty God for|
w: come and taste the|streams of grace that|are so free- ly|flo- * wing,~|_ Say-|ing, drink my love,|my on- ly dove,|
 a2 e2 f2 d2 | (e2 c2) B2 ^G2 | [EB]4 [EB]4 | d4 (d2 f2) | (e2 c2) (B2 E2) | A8 |] %35
w: to re- deem the|na- * tions, That|hap- py,|hap- py *|we * might *|be.|
w: for you it is|flo- * wing, Then|hap- py,|hap- py *|you * shall *|be.|
V:2
 A4 | c2 A2 c2 dc | B2 ^G2 E2 G2 | A2 ^GF D2 D2 | (E2 A2) ^G2 G2 | B4 B4 | A4 D4 | E4 ^G2 G2 | %8
w: 3.~Let|us who have be- *|gun to taste The|sweets of * this sal-|va- * tion, Come|fol- low,|fol- low,|we'll fol- low|
w: 4.~The|sa- cred ties of *|our friend- ship U-|nite all * lo- ving|Chris- * tians, In|glo- ry,|in glo-|ry they shall|
 A4 A4 | c2 A2 c2 dc | B2 ^G2 E2 G2 | A2 ^GF D2 D2 | (E2 A2) ^G2 G2 | B4 B4 | A4 (A2 F2) | %15
w: on; Be-|lieve, and we shall *|o- ver- come, Re-|fil- ling * all temp-|ta- * tion; Since|Je- sus,|Je- sus, *|
w: live; No|time or place shall *|e'er change them, And|death shall * ne'er dis-|solve * them. U-|ni- ted|as one *|
 E4 E2 ^G2 | A8 | z4 z2 A2 | c3 B c2 B2 | c6 A2 | A2 F2 E2 D2 | (E2 A2) B2 ^G2 | A2 B2 A2 A2 | %23
w: Je- sus was|born.|Je-|sus with out- stretched|arms and|voice that's so in-|vi- * ting, To|pear- ly streams and|
w: they that be-|lieve.|When|Ga- briel's trum soun-|ding, And|con- quered death re-|sign- * ing, The|scat- tered dust u-|
 B2 B2 ^G2 G2 | A2 A2 B2 c2 | (B2 ^G2) B4- | B4 A4 | ^G2 AB c3 d | c2 B2 A2 G2 | F2 E2 A2 B2 | %30
w: pu- rest joys is|thus our souls ex-|ci- * ting;~|_ Let|us im- * part to|him our hearts, with|faith and love u-|
w: ni- ting, The soul|and bo- dy is|joi- * ning;~|_ All|join- ing * the great|pro- ces- sion, All|glo- ry re- a-|
 (A2 c2) B2 ^G2 | E4 ^G4 | A4 (B2 A2) | (^G2 c2) (B2 G2) | A8 |] %35
w: ni- * ting, Then|hap- py,|hap- py *|we * shall *|be.|
w: li- * zing, Then|hap- py,|hap- py *|we * shall *|be.|
V:3
 A4 | c2 c2 c2 dc | B2 B2 B2 B2 | A2 ^G2 A2 B2 | (A2 ^G2) E2 E2 | ^G4 G4 | A4 (B2 A2) | %7
w: 5.~The|bliss ex- qui- site *|is flo- wing, The|friends of Je- sus|shou- * ting, Such|rap- tures,|rap- tures *|
w: 6.~The|sin- ner is now *|la- men- ting, He|sees the grand pro-|ces- * sion, Mar-|ching, mar-|ching to *|
 (^G2 E2) E2 G2 | A4 A4 | c2 c2 c2 dc | B2 B2 B2 B2 | A2 ^G2 A2 B2 | (A2 ^G2) E2 E2 | ^G4 G4 | %14
w: flow * from his|word! The|an- gels are joined *|in con- cert, While|Je- sus stands in-|vi- * ting, Come|on, come|
w: the * daz- zling|throne; His|fright- ful soul is *|a- lar- med, With|star- tled eyes a-|ma- * zed; Fare-|well, for|
 A4 (B2 A2) | (^G2 E2) E2 G2 | A8 | z4 z2 A2 | A3 B c2 d2 | e6 A2 | A2 f2 e2 d2 | (e2 c2) B2 ^G2 | %22
w: on, bles- *|sed * of the|Lord.|Be-|hold the crowns of|glo- ry|Saints and an- gels|mee- * ting, And|
w: I am *|for- * ev- er|gone.|Be-|hold a god- ly|fa- ther,|There a pi- ous|mo- * ther, How|
 A2 B2 c2 d2 | e2 f2 ^g2 g2 | e2 c2 B2 A2 | (B2 ^G2) E4- | E4 e4 | ^g2 f2 e3 d | e2 B2 c2 B2 | %29
w: li- ving streams of|pu- rest joys for-|ev- er are in-|crea- * sing.~|_ In|a- zure fields for|ev- er range, And|
w: did they all pray|to- ge- ther; They|float on streams of|plea- * sure!|_ And|here I am lost|for- ev- er, On|
 A2 ^G2 A2 B2 | (A2 ^G2) E2 E2 | ^G4 G4 | A4 (B2 A2) | (^G2 E2) (E2 G2) | A8 |] %35
w: view a smi- ling|Je- * sus. Then|hap- py,|hap- py *|we * shall *|be,|
w: waves of end- less|sor- * row, Then|tor- ment,|is for *|ev- * er *|mine.|
V:4
 A,4 | A,2 A,2 A,2 D,2 | E,2 E,2 E,2 E,2 | F,2 E,2 D,2 D,2 | E,4 E,2 E,2 | E,4 E,4 | D,4 D,4 | %7
 E,4 E,2 E,2 | A,,4 [A,,A,]4 | A,2 A,2 A,2 D,2 | E,2 E,2 E,2 E,2 | F,2 E,2 D,2 D,2 | E,4 E,2 E,2 | %13
 E,4 E,4 | D,4 D,4 | E,4 E,2 E,2 | A,,8 | z4 z2 A,,2 | C,3 B,, A,,2 B,,2 | C,6 C,2 | %20
 D,2 D,2 E,2 G,2 | A,4 E,2 E,2 | A,2 G,2 A,2 B,2 | E,2 E,2 E,2 E,2 | A,2 A,2 G,2 A,2 | E,4 E,4- | %26
 E,4 A,4 | E,2 A,B, C3 B, | A,2 G,2 A,2 G,2 | F,2 E,2 D,2 D,2 | %30
"^______________________________________________________________________________________\nBased on the old Irish air \nSavourneen Deelish\n (O Fond Darling) \n    (Samuel Bayard, quoted in Jackson 1952, no. 198)." E,4 E,2 E,2 | %31
 E,4 E,4 | D,4 D,4 | E,4 E,4 | A,,8 |] %35

